modules/linearicons/icons/funnel.svg

<?xml version="1.0" encoding="utf-8"?>
<!-- Generated by IcoMoon.io -->
<!DOCTYPE svg PUBLIC "-//W3C//DTD SVG 1.1//EN" "http://www.w3.org/Graphics/SVG/1.1/DTD/svg11.dtd">
<svg version="1.1" xmlns="http://www.w3.org/2000/svg" xmlns:xlink="http://www.w3.org/1999/xlink" width="20" height="20" viewBox="0 0 20 20">
<path fill="#000000" d="M16.23 3.307c-0.396-0.268-0.949-0.504-1.643-0.702-1.366-0.39-3.172-0.605-5.087-0.605s-3.722 0.215-5.087 0.605c-0.694 0.198-1.246 0.434-1.643 0.702-0.637 0.43-0.77 0.886-0.77 1.193v0.5c0 0.428 0.321 1.133 0.639 1.609l4.891 7.336c0.251 0.376 0.471 1.103 0.471 1.555v3c0 0.173 0.090 0.334 0.237 0.425 0.080 0.050 0.171 0.075 0.263 0.075 0.076 0 0.153-0.018 0.224-0.053l2-1c0.169-0.085 0.276-0.258 0.276-0.447v-2c0-0.452 0.22-1.179 0.471-1.555l4.891-7.336c0.317-0.476 0.639-1.182 0.639-1.609v-0.5c0-0.307-0.134-0.763-0.77-1.193zM4.688 3.567c1.279-0.365 2.988-0.567 4.812-0.567s3.534 0.201 4.812 0.567c1.378 0.394 1.688 0.816 1.688 0.933s-0.31 0.54-1.688 0.933c-1.279 0.365-2.988 0.567-4.812 0.567s-3.534-0.201-4.812-0.567c-1.378-0.394-1.688-0.816-1.688-0.933s0.31-0.54 1.688-0.933zM10.639 13.391c-0.358 0.537-0.639 1.464-0.639 2.109v1.691l-1 0.5v-2.191c0-0.646-0.281-1.572-0.639-2.109l-4.88-7.32c0.274 0.117 0.585 0.226 0.932 0.324 1.366 0.39 3.172 0.605 5.087 0.605s3.722-0.215 5.087-0.605c0.346-0.099 0.658-0.207 0.932-0.325l-4.88 7.32z"></path>
</svg>

<svg xmlns="http://www.w3.org/2000/svg" width="20" height="20"><path d="M16.23 3.307c-.396-.268-.949-.504-1.643-.702C13.221 2.215 11.415 2 9.5 2s-3.722.215-5.087.605c-.694.198-1.246.434-1.643.702-.637.43-.77.886-.77 1.193V5c0 .428.321 1.133.639 1.609l4.891 7.336c.251.376.471 1.103.471 1.555v3a.5.5 0 0 0 .724.447l2-1a.5.5 0 0 0 .276-.447v-2c0-.452.22-1.179.471-1.555l4.891-7.336c.317-.476.639-1.182.639-1.609v-.5c0-.307-.134-.763-.77-1.193zm-11.542.26C5.967 3.202 7.676 3 9.5 3s3.534.201 4.812.567C15.69 3.961 16 4.383 16 4.5s-.31.54-1.688.933C13.033 5.798 11.324 6 9.5 6s-3.534-.201-4.812-.567C3.31 5.039 3 4.617 3 4.5s.31-.54 1.688-.933zm5.951 9.824c-.358.537-.639 1.464-.639 2.109v1.691l-1 .5V15.5c0-.646-.281-1.572-.639-2.109l-4.88-7.32c.274.117.585.226.932.324C5.779 6.785 7.585 7 9.5 7s3.722-.215 5.087-.605c.346-.099.658-.207.932-.325l-4.88 7.32z"/></svg>
